!! Orlando di Lasso, "Beatus vir, qui in sapientia morabitur" 2-part
!! polyphony, alla breve;
!! No. 1 from "Examples of Gregorian Chant & Works ...", compiled
!! by Gustave Soderlund, Appleton-Century-Crofts (New York), 1937; p. 10
**kern	**kern
*M4/2	*M4/2
=1	=1
0d	0r
=2	=2
1c#	0a
1d	.
=3	=3
2G	1b-
1d	.
.	1a
2d	.
=4	=4
2.f	2d
.	1a
4e	.
4d	.
4c	.
2d	2a
=5	=5
2A	2.cc
2.f	.
.	4b
.	4a
4e	4g
2d	2a
=6	=6
2c	2e
2A	2.cc
2.c	.
.	4b
.	2a
4d	.
=7	=7
4e	2g
4c	.
2g	2e
4c	2.g
4d	.
4e	.
4c	4a
=8	=8
4d	4b
4e	4g
4A	1cc
4B	.
4c	.
4A	.
4d	[2b
4e	.
=9	=9
4d	4b]
4c	4a
4c	1a
8B	.
8A	.
2.B	.
.	2g#
4B	.
=10	=10
1A	0a
1r	.
=11	=11
0f	1r
.	[1a
=12	=12
2r	1a]
2d	.
2f	2r
2d	2a
=13	=13
4A	2cc
4B	.
4c	2a
4d	.
2.c	4e
.	4f
.	4g
8B	4a
8A	.
=14	=14
2B	2.g
2c	.
.	8f
.	8e
2d	2f
[2c	2g
=15	=15
4c]	2a
4d	.
4e	4g
4f	4a
2.g	4b
.	4cc
.	[2dd
8f	.
8e	.
=16	=16
4d	4dd]
4e	8cc
.	8b
2f	4a
.	4b
2e	2cc
[2g	2b
=17	=17
4g]	2.a
4f	.
1f	.
.	4a
.	1g
2e	.
=18	=18
0f	2r
.	1a
.	2d
=19	=19
2r	1a
1d	.
.	2.f
2A	.
.	4e
=20	=20
1d	4f
.	4g
.	2a
2c	1e
[2A	.
=21	=21
2A]	2f#
2B	2.g
2.c	.
.	4e
.	[2cc
4A	.
=22	=22
1f	2cc]
.	2a
1d	2r
.	2a
=23	=23
2r	2b
2e	1cc
2f	.
[2g	2b-
=24	=24
2g]	1a
2f	.
2e	2g
4d	[2a
4e	.
=25	=25
4f	4a]
4d	4b
4e	4cc
4f	4a
2g	4b
.	4cc
4G	[2dd
4A	.
=26	=26
4B	4dd]
4c	4g
2.d	2b-
.	1a
4e	.
2f	.
=27	=27
1d	2r
.	2f#
2r	2g
2c#	[2a
=28	=28
2d	2a]
1e	2g
.	1f
2d	.
=29	=29
2c	2e
2A	2.cc
2.f	.
.	4b
.	4a
4e	4g
=30	=30
4d	4a
4c	4e
4d	4f
4B	4g
4c	4a
4d	4f
4e	4g
4f	4a
=31	=31
4e	4g
4d	4f
2.d	4f
.	8e
.	8d
.	1e
8c#	.
8B	.
2c#	.
=32	=32
0d;	0d;
==	==
*-	*-
